X: 27916
T: Mountain Road, The
R: reel
M: 4/4
K: Amajor
|AB||c2ec fcec|~c2ec BcAB|c2ec fcec|~d3c BAFA|
c2ec fcec|~c2ec BcAB|c3e fece|defa caa2||
a/a/a af eAce|~a3B cdcb|abca ecAc|(3dcB (3cBA BFFA|
~a3f eAce|agaB cdcb|abca ecAc|(3dcB (3cBA BFFA||
Acec fcec|Acec BEE2|Acce dcAd|defa caa|
b|{b}agfe fecf|ecBd cAAB|c2ec fcec|EFAB cAAG||
~A3B cABA|~A2AB cFFG|ABcA BGAF|edcA BFFA|
~A3B cABA|~A2AB cFFc|(3ded (3cdc (3BcB AF|EFAB cAA2||

